src/assets/outline/UserSearch.svg

<svg width="24" height="24" viewBox="0 0 24 24"  xmlns="http://www.w3.org/2000/svg">
<path d="M12 12.75C8.83 12.75 6.25 10.17 6.25 7C6.25 3.83 8.83 1.25 12 1.25C15.17 1.25 17.75 3.83 17.75 7C17.75 10.17 15.17 12.75 12 12.75ZM12 2.75C9.66 2.75 7.75 4.66 7.75 7C7.75 9.34 9.66 11.25 12 11.25C14.34 11.25 16.25 9.34 16.25 7C16.25 4.66 14.34 2.75 12 2.75Z" />
<path d="M3.41016 22.75C3.00016 22.75 2.66016 22.41 2.66016 22C2.66016 17.73 6.85018 14.25 12.0002 14.25C12.4102 14.25 12.7502 14.59 12.7502 15C12.7502 15.41 12.4102 15.75 12.0002 15.75C7.68018 15.75 4.16016 18.55 4.16016 22C4.16016 22.41 3.82016 22.75 3.41016 22.75Z" />
<path d="M18.2 22.15C16.02 22.15 14.25 20.38 14.25 18.2C14.25 16.02 16.02 14.25 18.2 14.25C20.38 14.25 22.15 16.02 22.15 18.2C22.15 20.38 20.38 22.15 18.2 22.15ZM18.2 15.75C16.85 15.75 15.75 16.85 15.75 18.2C15.75 19.55 16.85 20.65 18.2 20.65C19.55 20.65 20.65 19.55 20.65 18.2C20.65 16.85 19.55 15.75 18.2 15.75Z" />
<path d="M22 22.75C21.81 22.75 21.6199 22.68 21.4699 22.53L20.4699 21.53C20.1799 21.24 20.1799 20.7599 20.4699 20.4699C20.7599 20.1799 21.24 20.1799 21.53 20.4699L22.53 21.4699C22.82 21.7599 22.82 22.24 22.53 22.53C22.38 22.68 22.19 22.75 22 22.75Z" />
</svg>

<?xml version="1.0" encoding="UTF-8"?>
<svg width="24" height="24" viewBox="0 0 24 24" xmlns="http://www.w3.org/2000/svg">
 <path d="m12 12.75c-3.17 0-5.75-2.58-5.75-5.75s2.58-5.75 5.75-5.75 5.75 2.58 5.75 5.75-2.58 5.75-5.75 5.75zm0-10c-2.34 0-4.25 1.91-4.25 4.25s1.91 4.25 4.25 4.25 4.25-1.91 4.25-4.25-1.91-4.25-4.25-4.25z"/>
 <path d="m3.4102 22.75c-0.41 0-0.75-0.34-0.75-0.75 0-4.27 4.19-7.75 9.34-7.75 0.41 0 0.75 0.34 0.75 0.75s-0.34 0.75-0.75 0.75c-4.32 0-7.84 2.8-7.84 6.25 0 0.41-0.34 0.75-0.75 0.75z"/>
 <path d="m18.2 22.15c-2.18 0-3.95-1.77-3.95-3.95s1.77-3.95 3.95-3.95 3.95 1.77 3.95 3.95-1.77 3.95-3.95 3.95zm0-6.4c-1.35 0-2.45 1.1-2.45 2.45s1.1 2.45 2.45 2.45 2.45-1.1 2.45-2.45-1.1-2.45-2.45-2.45z"/>
 <path d="m22 22.75c-0.19 0-0.3801-0.07-0.5301-0.22l-1-1c-0.29-0.29-0.29-0.7701 0-1.0601s0.7701-0.29 1.0601 0l1 1c0.29 0.29 0.29 0.7701 0 1.0601-0.15 0.15-0.34 0.22-0.53 0.22z"/>
</svg>
